X: 10253
Q: "Allegro moderato."
M: C
L: 1/8
K: G
[|\
d2AB c>d{c}B2 | AD AG {G}F2{E}D2 |\
d3B e2(AB/c/) | (B2A)>G G2-HG2 |]
[|"^Chorus."\
e3d ^c2d2 | d2^c2 d2-d2 |\
d3B e3d | (cBA)G {G}F2{E}D2 |\
d3B e2(AB/c/) | (B2A)>G G2-G2 |]


